X:190
T:Jack's Delight THO1.190
M:2/4
L:1/8
Z:vmp. Peter Dunk 2012.from a transcription by Fynn Titford-Mock 2006
B:Thompson's Compleat Collection of 200 Favourite Country Dances Vol.I,1758
Q:1/4=120
K:G
G2G2|A2D2|TD2 AG|E/E/E E2|\
(ga/b/) ag|Tf2 ed|TB2 AG|D/D/D D2:|
|:(Bd)dc/d/|ec Tc2|(Ac)cB/c/|dB TB2|\
(GB)BA/B/|cAAB/c/|dBcA|D/D/D D2:|

